!!!COM: Palestrina, Giovanni Perluigi da
!!!OPR: Missa Ad coenam Agni
!!!OMD: Benedictus
!!!OTL: B.Hosanna
**kern	**kern	**kern	**kern	**kern
*Ibass	*Itenor	*Icalto	*Icalto	*Icant
!Bassus	!Tenor	!Altus 2	!Altus 1	!Cantus
*clefF4	*clefGv2	*clefG2	*clefG2	*clefG2
*k[]	*k[]	*k[]	*k[]	*k[]
*G:mix	*G:mix	*G:mix	*G:mix	*G:mix
*M3/2	*M3/2	*M3/2	*M3/2	*M3/2
=46	=46	=46	=46	=46
1r	1r	1r	1G	[1.g
2r	2r	2r	[2c	.
=47	=47	=47	=47	=47
1r	1G	1r	2c]	1.g]
.	.	.	2B	.
2r	[2c	2r	[2e	.
=48	=48	=48	=48	=48
1r	2c]	1r	2e]	1.g
.	1B	.	1d	.
2r	.	2r	.	.
=49	=49	=49	=49	=49
1r	1A	1r	2f	[1.a
.	.	.	2.e	.
2r	[2f	2r	.	.
.	.	.	4d	.
=50	=50	=50	=50	=50
1r	2f]	1r	1d	1.a]
.	1e	.	.	.
2r	.	2r	2c	.
=51	=51	=51	=51	=51
1r	1d	1r	1f	1.a
2r	[2c	2r	[2e	.
=52	=52	=52	=52	=52
1r	2c]	1r	2e]	1.g
.	1B	.	1d	.
2r	.	2r	.	.
=53	=53	=53	=53	=53
1r	1.A	1r	2e	1.a
.	.	.	1f#	.
2r	.	2r	.	.
=54	=54	=54	=54	=54
1r	1.G	1r	2.g	1.b
.	.	.	4f	.
2r	.	2r	2d	.
=55	=55	=55	=55	=55
1C	1g	[1.c	1e	[1.cc
[2F	2f	.	2a	.
=56	=56	=56	=56	=56
2F]	2a	1.c]	2f	1.cc]
1E	4g	.	1g	.
.	4f	.	.	.
.	4e	.	.	.
.	4d	.	.	.
=57	=57	=57	=57	=57
1F	2c	1.c	2a	1.a
.	2A	.	1f	.
2A	2c	.	.	.
=58	=58	=58	=58	=58
1G	1B	[1.d	2g	1b
.	.	.	4d	.
.	.	.	4e	.
2D	[2A	.	4f	[2dd
.	.	.	4g	.
=59	=59	=59	=59	=59
2F	2A]	1.d]	2a	4dd]
.	.	.	.	4cc
1G	2B	.	2g	4b
.	.	.	.	4a
.	2G	.	2d	2b
=60	=60	=60	=60	=60
2F	2A	1.d	1f	1a
1B-	2d	.	.	.
.	2G	.	4e	[2g
.	.	.	4d	.
=61	=61	=61	=61	=61
1.A	1r	1.c	2e	2g]
.	.	.	2A	1f#
.	2r	.	[2c	.
=62	=62	=62	=62	=62
1.G	2r	1.d	2c]	1.g
.	2r	.	1B	.
.	[2G	.	.	.
=63	=63	=63	=63	=63
1.C	2G]	1.e	[1.c	1r
.	2.c	.	.	.
.	.	.	.	2r
.	4B	.	.	.
=64	=64	=64	=64	=64
[1.F	2A	[1.f	1.c]	1a
.	2F	.	.	.
.	2G	.	.	2b
=65	=65	=65	=65	=65
1.F]	1A	1.f]	1.c	1cc
.	2A	.	.	2cc
=66	=66	=66	=66	=66
1.BB-	1B-	1.d	1r	1dd
.	2B-	.	2r	2dd
=67	=67	=67	=67	=67
1C	[1.G	1e	1c	1cc
2G	.	[2g	2d	2b
=68	=68	=68	=68	=68
1.C	1.G]	4g]	1e	1cc
.	.	4f	.	.
.	.	4e	.	.
.	.	4d	.	.
.	.	2e	2e	2g
=69	=69	=69	=69	=69
1r	1.F	1d	1f	1.a
2r	.	[2c	2f	.
=70	=70	=70	=70	=70
1r	1.G	2c]	2e	[1.g
.	.	1B	1d	.
2r	.	.	.	.
=71	=71	=71	=71	=71
1C	1r	1.c	2.e	1.g]
.	.	.	4d	.
2C	2r	.	2c	.
=72	=72	=72	=72	=72
1E	1G	1r	2B	1.g
.	.	.	1c	.
2F	2A	2r	.	.
=73	=73	=73	=73	=73
1G	1B	1d	2B	1r
.	.	.	1G	.
2E	2c	2e	.	2r
=74	=74	=74	=74	=74
1.D	1d	1f	1A	1a
.	2d	2f	2d	2b
=75	=75	=75	=75	=75
1.C	1.e	1g	2G	2.cc
.	.	.	1c	.
.	.	.	.	4dd
.	.	2g	.	2ee
=76	=76	=76	=76	=76
1D	1d	1f	2A	2ff
.	.	.	2a	2dd
2A	2c#	2e	2a	2ee
=77	=77	=77	=77	=77
4D	2d	1f	1a	1dd
4E	.	.	.	.
4F	1A	.	.	.
4G	.	.	.	.
2A	.	2c	2f	[2cc
=78	=78	=78	=78	=78
1.G	2r	1.d	1.g	2cc]
.	1d	.	.	1b
=79	=79	=79	=79	=79
1C	1e	[1.c	1g	1cc
2F	2f	.	2a	2r
=80	=80	=80	=80	=80
2E	2g	1.c]	2g	1cc
1F	1a	.	1f	.
.	.	.	.	2dd
=81	=81	=81	=81	=81
1.C	1g	1.c	2.e	1ee
.	.	.	4d	.
.	2r	.	2c	2ee
=82	=82	=82	=82	=82
1r	1G	1r	2B	1dd
.	.	.	1e	.
2r	2A	2r	.	2cc#
=83	=83	=83	=83	=83
1G	1B	1d	4d	2dd
.	.	.	4c	.
.	.	.	4B	1gg
.	.	.	4A	.
2E	2c#	2e	2G	.
=84	=84	=84	=84	=84
1D	2.d	2.f	2A	2.ff
.	.	.	2r	.
.	4e	4g	.	4ee
2D	2f	2a	2r	[2dd
=85	=85	=85	=85	=85
1G	2g	2b	2d	4dd]
.	.	.	.	4cc
.	2G	2g	2e	2b
2D	2d	2a	2f#	2a
=86	=86	=86	=86	=86
2G	2B	1g	2g	2b
2C	2c	.	2e	2.ee
[2D	2A	[2f	[2a	.
.	.	.	.	4dd
=87	=87	=87	=87	=87
2D]	1r	2f]	2a]	1dd
1A	.	1e	1a	.
.	2r	.	.	2cc#
=88	=88	=88	=88	=88
1D	2A	1f	2r	1dd
.	2B	.	2d	.
2A	2c	2r	2e	2r
=89	=89	=89	=89	=89
1D	2.d	1f	2f	1a
.	.	.	1d	.
.	4c	.	.	.
2r	2B	2g	.	2b
=90	=90	=90	=90	=90
1r	1A	1a	2e	1cc
.	.	.	1f	.
2r	2F	2a	.	2cc
=91	=91	=91	=91	=91
1r	2G	1g	[1.d	2b
.	2.d	.	.	1a
2r	.	2f#	.	.
.	4c	.	.	.
=92	=92	=92	=92	=92
1r	2B	2g	2d]	1g
.	1A	1cc	1c	.
2r	.	.	.	2f#
=93	=93	=93	=93	=93
1.G	2G	2.b	1.d	1g
.	2.B	.	.	.
.	.	4a	.	.
.	.	[2g	.	[2b
.	4c	.	.	.
=94	=94	=94	=94	=94
1.G	2d	4g]	1g	2b]
.	.	4f	.	.
.	2e	2e	.	2cc
.	2B	2d	[2g	2dd
=95	=95	=95	=95	=95
1C	1c	2e	4g]	1cc
.	.	.	4f	.
.	.	2.a	4e	.
.	.	.	4d	.
2C	[2c	.	2c	[2ee
.	.	4g	.	.
=96	=96	=96	=96	=96
2C	2c]	1g	2G	2ee]
1D	1A	.	2d	1dd
.	.	2f#	2r	.
=97	=97	=97	=97	=97
1.G	1G	[1.g	1B	1.dd
.	2r	.	2c	.
=98	=98	=98	=98	=98
1r	1G	1.g_	2d	1b
.	.	.	1e	.
2r	2A	.	.	2cc
=99	=99	=99	=99	=99
1.G	1B	1.g_	2d	2dd
.	.	.	2G	1ee
.	2c	.	2A	.
=100	=100	=100	=100	=100
1.G	2d	1.g]	2.B	2dd
.	2e	.	.	2.gg
.	.	.	4c	.
.	2d	.	2d	.
.	.	.	.	4ff
=101	=101	=101	=101	=101
[1.C	1c	[1.g	[1.e	1ee
.	[2G	.	.	2dd
=102	=102	=102	=102	=102
1.C]	2G]	1.g_	1.e]	1.cc
.	1c	.	.	.
=103	=103	=103	=103	=103
[1.G	[1.B	1.g_	[1.d	[1.dd
=104	=104	=104	=104	=104
1.G]	1.B]	1.g]	1.d]	1.dd]
==	==	==	==	==
*-	*-	*-	*-	*-
!!!CDT: 1525/^1526/-1594/2/2
!!!OCY: Italia
!!!AGN: Mass (Canonic)
!!!AST: renaissance, vocal
!!!ASW: Hymn
!!!PWK: Masses, Book I
!!!RNB: Cadence finals: C
!!!YOR: Le Opere Complete, v. 1, p. 125
!!!YOO: Rome, Italy: Fratelli Scalera
!!!END: 1992//
!!!EED: John Miller
!!!YEC: Copyright 2000, John Miller
!!!YEN: United States of America
!!!YEM: Rights to all derivative electronic formats reserved.
!!!YEM: Refer to licensing agreement for further details.
!!!YEM: This file must be accompanied by the licensing agreement.
!!!YEM: A copy of the licensing agreement may be found at http://www.music-cog.ohio-state.edu/HumdrumDatabases/Palestrina/license.txt
!!!EMD: converted to Humdrum by Bret Aarden
